svgs/thin/briefcase.svg

<svg xmlns="http://www.w3.org/2000/svg" viewBox="0 0 512 512"><!--! Font Awesome Pro 6.6.0 by @fontawesome - https://fontawesome.com License - https://fontawesome.com/license (Commercial License) Copyright 2024 Fonticons, Inc. --><path d="M144 40l0 56 224 0 0-56c0-13.3-10.7-24-24-24L168 16c-13.3 0-24 10.7-24 24zM128 96l0-56c0-22.1 17.9-40 40-40L344 0c22.1 0 40 17.9 40 40l0 56 64 0c35.3 0 64 28.7 64 64l0 104 0 152c0 35.3-28.7 64-64 64L64 480c-35.3 0-64-28.7-64-64L0 264 0 160c0-35.3 28.7-64 64-64l64 0zM16 272l0 144c0 26.5 21.5 48 48 48l384 0c26.5 0 48-21.5 48-48l0-144-160 0 0 48c0 17.7-14.3 32-32 32l-96 0c-17.7 0-32-14.3-32-32l0-48L16 272zm160-16l16 0 128 0 16 0 160 0 0-96c0-26.5-21.5-48-48-48l-72 0-240 0-72 0c-26.5 0-48 21.5-48 48l0 96 160 0zm16 16l0 48c0 8.8 7.2 16 16 16l96 0c8.8 0 16-7.2 16-16l0-48-128 0z"/></svg>

<svg xmlns="http://www.w3.org/2000/svg" viewBox="0 0 512 512"><!--! Font Awesome Pro 6.5.2 by @fontawesome - https://fontawesome.com License - https://fontawesome.com/license (Commercial License) Copyright 2024 Fonticons, Inc. --><path d="M144 40V96H368V40c0-13.3-10.7-24-24-24H168c-13.3 0-24 10.7-24 24zM128 96V40c0-22.1 17.9-40 40-40H344c22.1 0 40 17.9 40 40V96h64c35.3 0 64 28.7 64 64V264 416c0 35.3-28.7 64-64 64H64c-35.3 0-64-28.7-64-64V264 160c0-35.3 28.7-64 64-64h64zM16 272V416c0 26.5 21.5 48 48 48H448c26.5 0 48-21.5 48-48V272H336v48c0 17.7-14.3 32-32 32H208c-17.7 0-32-14.3-32-32V272H16zm160-16h16H320h16H496V160c0-26.5-21.5-48-48-48H376 136 64c-26.5 0-48 21.5-48 48v96H176zm16 16v48c0 8.8 7.2 16 16 16h96c8.8 0 16-7.2 16-16V272H192z"/></svg>
